X:110
M:4/4
L:1/4
K:Eb
E | G3/2 G/ A/G/ F/E/ | c B B G | B3/2 B/ c/B/ A/G/ | F3 A | G3/2 G/ A/G/ F/E/ | c B B G | B3/2 B/ c/B/ A/F/ | E3 E/ E/ | e !accent!e3/2 e/ d/ c/ | c !accent!B3/2 B/ c/ B/ | B !accent!A3/2 A/ B/ A/ | A !accent!G2 E | e !accent!e3/2 e/ d/ c/ | c !accent!B2 !sintro!B/ B/ | d3/2 c/ d B | e3 !eintro!|]
